!!!!SEGMENT: pl-wnifc--13846--001-010_anonim--piesni-polskie-i-ruskie-ludu-galicyjskiego-10-pojedziemy-na-low.krn
!!!kernsource:
!!!cenid: 18xx:3232
!!!COM: Anonim
!!!COM-rismID: pe30004985
!!!CDT:
!!!CNT:
!!!GTL: Pieśni polskie i ruskie ludu galicyjskiego
!!!OTL: 10. Pojedziemy na łów
!!!OMV: 010
!!!PDT: 1833
!!!AGN:
!!!YEC: Copyright 2022 Narodowy Instytut Fryderyka Chopina (https://polishscores.org)
!!!YEM: License CC-BY-4.0 (https://creativecommons.org/licenses/by/4.0)
!!!SMS-siglum: PL-Wnifc
!!!SMS-shelfmark: 13846
!!!SMS-shelfwork: 001-010 G
!!!NIFC-rismSourceID: 1001036701
!!!NIFC-rismChildID: 1001036733
!!!NIFC-islandoraID: nifc:210326
!!!URL-pdf-islandora: https://repozytorium.nifc.pl/islandora/object/nifc%3A210326/datastream/PDF/view
!!!URL-scan:
!!!IIIF:
!!!ONB-nifc:
!!!AIN: 1 piano 1 vox
!!!key: G
!!!OMD: Moderato.
**kern	**kern	**kern	**text
*part2	*part2	*part1	*
*staff3	*staff2	*staff1	*
*I"FORTEPIAN.	*I"FORTEPIAN.	*I"GŁOS.	*
*Ipiano	*Ipiano	*Ivox	*
*ICklav	*ICklav	*ICvox	*
*IGacmp	*IGacmp	*IGsolo	*
*clefF4	*clefG2	*clefG2	*
*k[f#]	*k[f#]	*k[f#]	*
*G:	*G:	*G:	*
*M2/4	*M2/4	*M2/4	*
=1-	=1-	=1-	=1-
!	!	!LO:TX:a:t=C.c.2	!
8GGG/L	8g/L 8B/	8g/	Po-
8GG/	8a/ 8f#/	8a/	-je-
8GG/	8b/ 8g/	8b/	-dzie-
8GG/J	8cc/J 8a/	8cc/	-my
=2	=2	=2	=2
!LO:TX:t=P:problem=mixed beam	!	!	!
8GGG/L	4dd\ 4b\	4dd\	na
8G\	.	.	.
8d\J 8B\	8b\ 8g\	8b/	łów
8r	8r	8r	.
=3	=3	=3	=3
!LO:TX:t=P:problem=mixed beam	!	!	!
8GGG/L	4dd\ 4b\	4dd\	na
8G\	.	.	.
8d\J 8B\	8b\ 8g\	8b/	łów
8r	8r	8r	.
!!LO:LB:g=original
=4	=4	=4	=4
8GG/L	8b/L 8g/ 8d/	8b/	to-
8BB/	8b/ 8g/ 8d/	8b/	-wa-
8D\	8a/ 8f#/ 8d/ 8c/	8a/	-rzy-
8DD/J	8a/J 8f#/ 8d/ 8c/	8a/	-szu
=5	=5	=5	=5
4GG/	4g/ 4d/ 4B/	4g/	mój
4r	4r	4r	.
=6!|:	=6!|:	=6!|:	=6!|:
8GG/L	8b/L 8g/	8b/	na
8F#\	8b/ 8g/	8b/	łów
8DD/	8a/ 8f#/	8a/	na
8D\J	8a/J 8f#/	8a/	łów
!!LO:LB:g=original
=7	=7	=7	=7
8GG/L	8b\L 8g\	8b/	na
8D\	8b\J 8g\	8b/	ło-
8FF#/	4cc\ 4a\	4cc\	-wy
8DD/J	.	.	.
=8	=8	=8	=8
8GG/L	8b/L 8g/	8b/	do
8D\	8b/ 8g/	8b/	zie-
8DD/	8a/ 8f#/	8a/	-lo-
8D\J	8a/J 8f#/	8a/	nej
=9	=9	=9	=9
8GG/L	8b/L 8g/	8b/	dą-
8D\	8b/J 8g/	8b/	-bro-
8FF#	4cc\ 4a\	4cc\	-wy
8DD/J	.	.	.
!!LO:LB:g=original
=10	=10	=10	=10
8GG/L	8b/L 8g/ 8d/	8b\	to-
8BB/	8b/ 8g/ 8d/	8b\	-wa-
8D\	8a/ 8f#/ 8d/ 8c/	8a/	-rzy-
8DD/J	8a/J 8f#/ 8d/ 8c/	8a/	-szu
=11	=11	=11	=11
4GG/	4g/ 4d/ 4B/	4g/	mój
4r	4r	4r	.
=:|!	=:|!	=:|!	=:|!
*-	*-	*-	*-
!!!system-decoration: s1{(s2,s3)}
!!!RDF**kern: > = above
!!!RDF**kern: < = below
!!!ENC: Emilia Ziętek
!!!ENC: Marta Lawrence
!!!END: 2021-11-09
